svg/aws-ec2-r5.svg

<?xml version="1.0" encoding="UTF-8"?>
<svg xmlns="http://www.w3.org/2000/svg" xmlns:xlink="http://www.w3.org/1999/xlink" width="32" height="32" viewBox="0 0 32 32">
<path fill-rule="evenodd" fill="rgb(83.137255%, 35.686275%, 2.745098%)" fill-opacity="1" d="M 18.472656 19.394531 C 17.855469 19.394531 17.246094 19.269531 16.683594 19.023438 L 16.683594 18.144531 C 17.363281 18.375 17.949219 18.492188 18.445312 18.492188 C 19.367188 18.492188 19.828125 18.09375 19.828125 17.296875 C 19.828125 16.910156 19.710938 16.628906 19.480469 16.453125 C 19.246094 16.273438 18.878906 16.1875 18.371094 16.1875 C 17.992188 16.1875 17.519531 16.214844 16.953125 16.277344 L 16.953125 15.570312 L 17.128906 12.789062 L 20.640625 12.789062 L 20.640625 13.675781 L 18.167969 13.675781 L 18.0625 15.402344 C 18.332031 15.351562 18.601562 15.324219 18.875 15.328125 C 19.519531 15.328125 20.03125 15.5 20.402344 15.851562 C 20.769531 16.199219 20.957031 16.675781 20.957031 17.277344 C 20.957031 17.925781 20.734375 18.4375 20.285156 18.824219 C 19.835938 19.203125 19.234375 19.394531 18.472656 19.394531 M 12.183594 13.664062 L 13.34375 13.664062 C 14.050781 13.664062 14.40625 14.023438 14.40625 14.738281 C 14.40625 15.453125 14.042969 15.8125 13.316406 15.8125 L 12.183594 15.8125 Z M 12.183594 16.6875 L 13.320312 16.6875 L 14.835938 19.257812 L 15.972656 19.257812 L 14.300781 16.492188 C 14.710938 16.332031 15.023438 16.097656 15.238281 15.792969 C 15.453125 15.488281 15.5625 15.125 15.5625 14.703125 C 15.5625 14.117188 15.371094 13.652344 14.988281 13.304688 C 14.605469 12.960938 14.097656 12.789062 13.460938 12.789062 L 11.042969 12.789062 L 11.042969 19.257812 L 12.183594 19.257812 Z M 6 26 L 26 26 L 26 6 L 6 6 Z M 30.667969 8.667969 L 30.667969 7.332031 L 27.332031 7.332031 L 27.332031 5.332031 C 27.332031 4.964844 27.035156 4.667969 26.667969 4.667969 L 24.667969 4.667969 L 24.667969 1.332031 L 23.332031 1.332031 L 23.332031 4.667969 L 20.667969 4.667969 L 20.667969 1.332031 L 19.332031 1.332031 L 19.332031 4.667969 L 16.667969 4.667969 L 16.667969 1.332031 L 15.332031 1.332031 L 15.332031 4.667969 L 12.667969 4.667969 L 12.667969 1.332031 L 11.332031 1.332031 L 11.332031 4.667969 L 8.667969 4.667969 L 8.667969 1.332031 L 7.332031 1.332031 L 7.332031 4.667969 L 5.332031 4.667969 C 4.964844 4.667969 4.667969 4.964844 4.667969 5.332031 L 4.667969 7.332031 L 1.332031 7.332031 L 1.332031 8.667969 L 4.667969 8.667969 L 4.667969 11.332031 L 1.332031 11.332031 L 1.332031 12.667969 L 4.667969 12.667969 L 4.667969 15.332031 L 1.332031 15.332031 L 1.332031 16.667969 L 4.667969 16.667969 L 4.667969 19.332031 L 1.332031 19.332031 L 1.332031 20.667969 L 4.667969 20.667969 L 4.667969 23.332031 L 1.332031 23.332031 L 1.332031 24.667969 L 4.667969 24.667969 L 4.667969 26.667969 C 4.667969 27.035156 4.964844 27.332031 5.332031 27.332031 L 7.332031 27.332031 L 7.332031 30.667969 L 8.667969 30.667969 L 8.667969 27.332031 L 11.332031 27.332031 L 11.332031 30.667969 L 12.667969 30.667969 L 12.667969 27.332031 L 15.332031 27.332031 L 15.332031 30.667969 L 16.667969 30.667969 L 16.667969 27.332031 L 19.332031 27.332031 L 19.332031 30.667969 L 20.667969 30.667969 L 20.667969 27.332031 L 23.332031 27.332031 L 23.332031 30.667969 L 24.667969 30.667969 L 24.667969 27.332031 L 26.667969 27.332031 C 27.035156 27.332031 27.332031 27.035156 27.332031 26.667969 L 27.332031 24.667969 L 30.667969 24.667969 L 30.667969 23.332031 L 27.332031 23.332031 L 27.332031 20.667969 L 30.667969 20.667969 L 30.667969 19.332031 L 27.332031 19.332031 L 27.332031 16.667969 L 30.667969 16.667969 L 30.667969 15.332031 L 27.332031 15.332031 L 27.332031 12.667969 L 30.667969 12.667969 L 30.667969 11.332031 L 27.332031 11.332031 L 27.332031 8.667969 Z M 30.667969 8.667969 "/>
</svg>

<svg role="img" viewBox="0 0 32 32" xmlns="http://www.w3.org/2000/svg"><path d="M18.473 19.395a4.5 4.5 0 0 1-1.79-.372v-.878q1.019.346 1.762.347 1.383 0 1.383-1.195 0-.58-.348-.844c-.234-.18-.601-.265-1.109-.265-.379 0-.851.027-1.418.09v-.708l.176-2.78h3.512v.886h-2.473l-.105 1.726a4 4 0 0 1 .812-.074q.969-.002 1.527.524.553.522.555 1.425c0 .649-.223 1.16-.672 1.547-.45.38-1.05.57-1.812.57m-6.29-5.73h1.16q1.063 0 1.063 1.073 0 1.074-1.09 1.075h-1.132Zm0 3.023h1.137l1.516 2.57h1.137L14.3 16.492q.615-.24.937-.699.324-.457.325-1.09 0-.878-.575-1.398-.573-.516-1.527-.516h-2.418v6.469h1.14ZM6 26h20V6H6ZM30.668 8.668V7.332h-3.336v-2a.664.664 0 0 0-.664-.664h-2V1.332h-1.336v3.336h-2.664V1.332h-1.336v3.336h-2.664V1.332h-1.336v3.336h-2.664V1.332h-1.336v3.336H8.668V1.332H7.332v3.336h-2a.664.664 0 0 0-.664.664v2H1.332v1.336h3.336v2.664H1.332v1.336h3.336v2.664H1.332v1.336h3.336v2.664H1.332v1.336h3.336v2.664H1.332v1.336h3.336v2c0 .367.297.664.664.664h2v3.336h1.336v-3.336h2.664v3.336h1.336v-3.336h2.664v3.336h1.336v-3.336h2.664v3.336h1.336v-3.336h2.664v3.336h1.336v-3.336h2a.664.664 0 0 0 .664-.664v-2h3.336v-1.336h-3.336v-2.664h3.336v-1.336h-3.336v-2.664h3.336v-1.336h-3.336v-2.664h3.336v-1.336h-3.336V8.668Zm0 0" fill="rgb(83.137256%, 35.686275%, 2.745098%)" fill-rule="evenodd"/></svg>
